dist/img/sprites/hHand.svg

<svg width="30" height="35" viewBox="0 0 30 35" fill="none" xmlns="http://www.w3.org/2000/svg">
<path d="M8.8632 18.5981C8.8632 18.4523 8.8632 18.3064 8.8632 18.1595C8.8632 13.3291 8.85995 8.49975 8.86536 3.66933C8.86752 1.81181 10.0333 0.385422 11.7949 0.059391C13.9176 -0.333134 15.9236 1.26914 15.969 3.41516C15.9928 4.52516 15.9744 5.63625 15.9755 6.74625C15.9755 6.89211 15.9755 7.03797 15.9755 7.21171C18.1015 6.75269 19.5939 7.51307 20.4903 9.43708C22.5926 8.76143 24.4828 9.77599 25.162 11.5938C25.8768 11.5938 26.5743 11.4887 27.2263 11.6142C28.8441 11.9252 29.9774 13.283 29.9882 14.926C30.0142 18.8062 29.9904 22.6853 29.9817 26.5655C29.9817 26.8176 29.9374 27.0707 29.9039 27.3227C29.3945 31.2136 25.9644 34.5233 22.0248 34.9179C21.5566 34.9651 21.0829 34.9898 20.6125 34.9909C18.4541 34.9984 16.2956 35.007 14.1372 34.9909C10.9233 34.9662 8.42307 33.6213 6.68851 30.9326C4.66198 27.7903 2.64951 24.6394 0.64893 21.4809C-0.387045 19.8454 -0.158871 17.7788 1.16367 16.4092C3.00637 14.5013 6.14133 14.7555 7.63257 16.9347C8.01647 17.4956 8.3982 18.0598 8.78101 18.6217C8.80913 18.6132 8.83724 18.6046 8.86536 18.596L8.8632 18.5981ZM25.3155 15.5277H22.9083C22.9083 15.2831 22.9105 15.0697 22.9083 14.8574C22.8997 14.0959 22.9256 13.3312 22.8672 12.573C22.8218 11.9874 22.2822 11.6003 21.7004 11.6399C21.1424 11.6775 20.7001 12.1193 20.6666 12.6856C20.6536 12.899 20.6601 13.1135 20.6601 13.3269C20.6601 14.0584 20.6601 14.7887 20.6601 15.5266H18.2313V15.0547C18.2313 13.6766 18.2313 12.2995 18.2313 10.9214C18.2313 10.7873 18.2367 10.6533 18.2216 10.5203C18.1535 9.8961 17.6452 9.44781 17.0493 9.47891C16.447 9.51001 15.9831 9.98405 15.9788 10.6211C15.968 12.1193 15.9744 13.6176 15.9744 15.1158C15.9744 15.2563 15.9744 15.3968 15.9744 15.5373H13.5456C13.5456 15.3571 13.5456 15.1995 13.5456 15.0418C13.5456 11.3096 13.5456 7.57849 13.5456 3.84629C13.5456 3.71223 13.551 3.57817 13.5402 3.44518C13.4926 2.88106 13.0449 2.4435 12.4891 2.40918C11.9441 2.37593 11.4585 2.73199 11.3385 3.27681C11.2953 3.46985 11.2942 3.67469 11.2942 3.87417C11.292 11.2581 11.292 18.641 11.292 26.025V26.6009C11.1384 26.3929 11.0509 26.2824 10.9708 26.1655C9.20816 23.5712 7.45414 20.9715 5.67417 18.3901C5.47195 18.0973 5.15726 17.8345 4.83501 17.678C4.16779 17.3541 3.3416 17.5836 2.85389 18.1456C2.33915 18.7376 2.28616 19.5634 2.73602 20.268C4.74092 23.4071 6.74583 26.5462 8.7583 29.6789C9.99217 31.5997 11.7743 32.5682 14.0658 32.5853C16.3183 32.6025 18.5709 32.596 20.8223 32.5832C21.2776 32.581 21.7415 32.5478 22.1871 32.4577C25.3955 31.8078 27.5518 29.1952 27.5691 25.906C27.5886 22.3486 27.5735 18.7901 27.5735 15.2317C27.5735 15.1115 27.5713 14.9903 27.5551 14.8713C27.4848 14.3351 27.0198 13.9307 26.4705 13.9211C25.9092 13.9114 25.4215 14.3254 25.3545 14.8788C25.3296 15.0879 25.3274 15.3003 25.3144 15.5266L25.3155 15.5277Z" fill="#4B8125"/>
</svg>

<svg width="30" height="35" viewBox="0 0 30 35" fill="none" xmlns="http://www.w3.org/2000/svg"><path d="M8.863 18.598v-.438c0-4.83-.003-9.66.002-14.49.003-1.858 1.168-3.285 2.93-3.61 2.123-.393 4.129 1.21 4.174 3.355.024 1.11.005 2.221.007 3.331v.466c2.126-.46 3.618.301 4.514 2.225 2.103-.676 3.993.339 4.672 2.157.715 0 1.412-.105 2.064.02a3.361 3.361 0 012.762 3.312c.026 3.88.002 7.76-.006 11.64 0 .252-.045.505-.078.757-.51 3.89-3.94 7.2-7.88 7.595a14.45 14.45 0 01-1.412.073c-2.158.007-4.316.016-6.475 0-3.214-.025-5.714-1.37-7.448-4.058a1370.952 1370.952 0 01-6.04-9.452 4.095 4.095 0 01.515-5.072c1.842-1.908 4.977-1.653 6.469.526.383.56.765 1.125 1.148 1.687l.084-.026-.002.002zm16.453-3.07h-2.408c0-.245.002-.458 0-.67-.008-.762.018-1.527-.04-2.285-.046-.586-.586-.973-1.168-.933-.558.037-1 .48-1.033 1.046-.013.213-.007.428-.007.64v2.2h-2.429v-4.605c0-.134.006-.268-.01-.4-.067-.625-.576-1.073-1.172-1.042-.602.031-1.066.505-1.07 1.142-.011 1.498-.005 2.997-.005 4.495v.421h-2.428V3.846c0-.134.005-.268-.006-.4a1.127 1.127 0 00-1.05-1.037 1.1 1.1 0 00-1.152.868 2.754 2.754 0 00-.044.597c-.002 7.384-.002 14.767-.002 22.151v.576c-.154-.208-.241-.319-.321-.435-1.763-2.595-3.517-5.195-5.297-7.776a2.258 2.258 0 00-.839-.712c-.667-.324-1.493-.094-1.981.468-.515.592-.568 1.417-.118 2.122 2.005 3.14 4.01 6.278 6.022 9.41 1.234 1.922 3.016 2.89 5.308 2.907 2.252.017 4.505.011 6.756-.002.456-.002.92-.035 1.365-.125 3.208-.65 5.365-3.263 5.382-6.552.02-3.557.005-7.116.005-10.674 0-.12-.003-.242-.019-.36a1.107 1.107 0 00-1.084-.95 1.103 1.103 0 00-1.116.957c-.025.209-.028.421-.04.648z" fill="#4B8125"/></svg>
